Gurmukhi/0A20.svg

<svg enable-background="new 0 0 336 592" viewBox="0 0 336 592" xmlns="http://www.w3.org/2000/svg"><path d="m176.051926 195.546112c29.424865-.982742 58.410446-.165863 87.389877-.468475 3.697968-.03859 5.894104 1.167831 6.980286 4.835907.9888 3.339142 2.564941 6.499801 3.765625 9.781768 2.013855 5.504563.708252 7.430207-5.15091 7.443116-21.655914.047714-43.311996.014419-64.967926.057464-11.43222.022736-9.62474-.708999-9.721054 9.500458-.098999 10.493881.332657 21.006424-.168518 31.477265-.257202 5.373565 1.979553 7.53421 6.51268 9.483459 17.794052 7.651489 32.985184 18.782349 43.700485 35.211975 13.750748 21.083862 13.30336 47.217377-1.07106 65.438324-10.91217 13.832123-25.961532 20.514191-42.837921 23.360169-25.47496 4.295989-49.870331 1.23294-71.987808-12.896241-18.495377-11.815338-28.955467-28.874176-29.248032-51.042297-.275955-20.910278 9.641007-36.906159 26.340775-48.931885 11.219253-8.079132 23.774231-13.38739 37.050399-16.909576 4.221924-1.120087 5.46579-3.182648 5.374787-7.339279-.229691-10.489441-.232132-20.99263.046829-31.480408.122482-4.604202-1.484878-6.027008-6.036743-5.992966-23.653671.176941-47.310188-.020462-70.963684.167542-4.391052.034896-6.786301-1.317398-7.925118-5.606491-.934982-3.521424-2.624244-6.835221-3.75058-10.315049-1.362823-4.210434-.151237-6.019348 4.281754-6.137588 6.492302-.173203 12.992592-.107315 19.488876-.059921 24.149392.176178 48.303872-.514695 72.896981.422729m-33.315583 167.251343c9.124726 4.562469 18.919297 6.146332 28.980225 6.269287 16.487305.201477 32.088333-3.049255 45.752853-12.84256 14.699356-10.535004 18.610764-28.404327 10.048645-44.296173-6.397735-11.874603-16.156448-20.072662-27.844116-26.331482-6.65036-3.56131-13.297897-5.253326-20.983612-3.217346-17.928543 4.749359-35.049286 10.903778-47.599121 25.445099-9.26564 10.735962-12.545303 22.910461-6.884575 36.553161 3.488205 8.4068 10.004143 13.940186 18.529701 18.420014z"/></svg>

<svg version="1.1" id="Layer_1" xmlns="http://www.w3.org/2000/svg" xmlns:xlink="http://www.w3.org/1999/xlink" x="0px" y="0px"
	 width="100%" viewBox="0 0 336 592" enable-background="new 0 0 336 592" xml:space="preserve">
<path fill="#000000" opacity="1.000000" stroke="none" 
	d="
M176.051926,195.546112 
	C205.476791,194.563370 234.462372,195.380249 263.441803,195.077637 
	C267.139771,195.039047 269.335907,196.245468 270.422089,199.913544 
	C271.410889,203.252686 272.987030,206.413345 274.187714,209.695312 
	C276.201569,215.199875 274.895966,217.125519 269.036804,217.138428 
	C247.380890,217.186142 225.724808,217.152847 204.068878,217.195892 
	C192.636658,217.218628 194.444138,216.486893 194.347824,226.696350 
	C194.248825,237.190231 194.680481,247.702774 194.179306,258.173615 
	C193.922104,263.547180 196.158859,265.707825 200.691986,267.657074 
	C218.486038,275.308563 233.677170,286.439423 244.392471,302.869049 
	C258.143219,323.952911 257.695831,350.086426 243.321411,368.307373 
	C232.409241,382.139496 217.359879,388.821564 200.483490,391.667542 
	C175.008530,395.963531 150.613159,392.900482 128.495682,378.771301 
	C110.000305,366.955963 99.540215,349.897125 99.247650,327.729004 
	C98.971695,306.818726 108.888657,290.822845 125.588425,278.797119 
	C136.807678,270.717987 149.362656,265.409729 162.638824,261.887543 
	C166.860748,260.767456 168.104614,258.704895 168.013611,254.548264 
	C167.783920,244.058823 167.781479,233.555634 168.060440,223.067856 
	C168.182922,218.463654 166.575562,217.040848 162.023697,217.074890 
	C138.370026,217.251831 114.713509,217.054428 91.060013,217.242432 
	C86.668961,217.277328 84.273712,215.925034 83.134895,211.635941 
	C82.199913,208.114517 80.510651,204.800720 79.384315,201.320892 
	C78.021492,197.110458 79.233078,195.301544 83.666069,195.183304 
	C90.158371,195.010101 96.658661,195.075989 103.154945,195.123383 
	C127.304337,195.299561 151.458817,194.608688 176.051926,195.546112 
M142.736343,362.797455 
	C151.861069,367.359924 161.655640,368.943787 171.716568,369.066742 
	C188.203873,369.268219 203.804901,366.017487 217.469421,356.224182 
	C232.168777,345.689178 236.080185,327.819855 227.518066,311.928009 
	C221.120331,300.053406 211.361618,291.855347 199.673950,285.596527 
	C193.023590,282.035217 186.376053,280.343201 178.690338,282.379181 
	C160.761795,287.128540 143.641052,293.282959 131.091217,307.824280 
	C121.825577,318.560242 118.545914,330.734741 124.206642,344.377441 
	C127.694847,352.784241 134.210785,358.317627 142.736343,362.797455 
z"/>
</svg>
